!!!COM: Bach, Johann Sebastian
!!!OTL: Sinfonia No. 15; in b minor; BWV 801
!! Three-part sinfonia
!! Bach-Gesellschaft edition, pp.41-42
!! Performance duration: 1:24; performance tempo: 61.1 quarter-notes per minute.
!! (Andras Schiff, piano, "Two-Part Inventions BWV 772a-786; Three-part
!! Inventions BWV 787-801" Decca 411 974-2)
**kern	**kern	**kern
*staff2	*staff1	*staff1
*M9/16	*M9/16	*M9/16
*MM61.1	*MM61.1	*MM61.1
*b:	*b:	*b:
=1	=1	=1
8.BB	8.r	16b
.	.	16f#
.	.	16f#
16r	8.r	16g
16B	.	16f#
16c#	.	16f#
16d	8.r	16b
16c#	.	16f#
16B	.	16f#
=2	=2	=2
[8.A#	8.r	16cc#
.	.	16f#
.	.	16f#
16A#]	8.r	16g
16B	.	16f#
16c#	.	16f#
16B	8.r	16cc#
16c#	.	16f#
16A#	.	16f#
=3	=3	=3
8.B	8.r	32dd
.	.	32b
.	.	32dd
.	.	32ff#
.	.	32bb
.	.	32ff#
8.r	8.r	32dd
.	.	32ff#
.	.	32dd
.	.	32b
.	.	32dd
.	.	32b
8.r	8.r	32f#
.	.	32b
.	.	32f#
.	.	32d
.	.	32f#
.	.	32d
=4	=4	=4
16B	8.r	16B
16F#	.	16r
16F#	.	16r
16G	8.r	16r
16F#	.	16b
16F#	.	16cc#
16B	8.r	16dd
16F#	.	16cc#
16F#	.	16b
=5	=5	=5
16c#	8.r	[8.a#
16F#	.	.
16F#	.	.
16G	8.r	16a#]
16F#	.	16b
16F#	.	16cc#
16c#	8.r	16b
16F#	.	16cc#
16F#	.	16a#
=6	=6	=6
32d	8.r	32b
32B	.	32f#
32d	.	32b
32f#	.	32dd
32b	.	32ff#
32f#	.	32dd
32d	8.r	32b
32f#	.	32dd
32d	.	32b
32B	.	32f#
32d	.	32b
32B	.	32f#
32F#	8.r	32d
32B	.	32f#
32F#	.	32d
32D	.	32B
32F#	.	32d
32D	.	32B
=7	=7	=7
8.BB	16b	[4.dd
.	16f#	.
.	16f#	.
16r	16g	.
16B	16f#	.
16c#	16f#	.
16d	16b	8.dd_
16c#	16f#	.
16B	16f#	.
=8	=8	=8
8.e	[4.g#	16dd]
.	.	16b
.	.	16b
16r	.	16cc#
16E	.	16b
16F#	.	16b
16G#	8.g#]	16ee
16F#	.	16b
16E	.	16b
=9	=9	=9
8.A	16a	[4.cc#
.	16e	.
.	16e	.
16r	16f#	.
16AA	16e	.
16BB	16e	.
16C#	16a	8.cc#_
16BB	16e	.
16AA	16e	.
=10	=10	=10
8.D	[4.f#	16cc#]
.	.	16a
.	.	16a
16r	.	16b
16DD	.	16a
16EE	.	16a
16FF#	8.f#]	16dd
16EE	.	16a
16DD	.	16a
=11	=11	=11
8.GG	16g	32b
.	.	32dd
.	16r	32b
.	.	32g
.	16r	32b
.	.	32g
32G	8.r	8.e
32B	.	.
32G	.	.
32E	.	.
32G	.	.
32E	.	.
32C#	8.r	32ee
32E	.	32gg
32C#	.	32ee
32AA	.	32cc#
32C#	.	32ee
32AA	.	32cc#
=12	=12	=12
8.FF#	8.r	32a
.	.	32cc#
.	.	32a
.	.	32f#
.	.	32a
.	.	32f#
32F#	8.r	8.d
32A	.	.
32F#	.	.
32D	.	.
32F#	.	.
32D	.	.
32BB	8.r	32dd
32D	.	32ff#
32BB	.	32dd
32GG	.	32b
32BB	.	32dd
32GG	.	32b
=13	=13	=13
8.EE	8.r	32g
.	.	32b
.	.	32g
.	.	32e
.	.	32g
.	.	32e
32E	8.r	32c#
32G	.	32e
32E	.	32c#
32C#	.	32A
32E	.	32c#
32C#	.	32A
32AA	8.r	16a
32C#	.	.
32AA	.	16f#
32FF#	.	.
32AA	.	16g
32FF#	.	.
=14	=14	=14
8.DD	16d	8.f#
.	16A	.
.	16A	.
16r	16B	8.r
16DD	16A	.
16EE	16A	.
16FF#	16d	8.r
16EE	16A	.
16DD	16A	.
=15	=15	=15
8.CC#	16e	8.r
.	16A	.
.	16A	.
16r	16B	8.r
16AA	16A	.
16BB	16A	.
16C#	16e	8.r
16BB	16A	.
16AA	16A	.
=16	=16	=16
[8.D	32f#	8.r
.	32d	.
.	32f#	.
.	32a	.
.	32dd	.
.	32b	.
16D]	32g#	8.r
.	32b	.
16E	32g#	.
.	32e	.
16F#	32g#	.
.	32e	.
16E	32B	8.r
.	32e	.
16F#	32B	.
.	32G#	.
16D	32B	.
.	32G#	.
=17	=17	=17
8.C#	8.E	16a
.	.	16e
.	.	16e
8.r	16r	16f#
.	16A	16e
.	16B	16e
8.r	16c#	16a
.	16B	16e
.	16A	16e
=18	=18	=18
8.E	[8.G#	16b
.	.	16e
.	.	16e
8.r	16G#]	16f#
.	16A	16e
.	16B	16e
8.r	16A	16b
.	16B	16e
.	16G#	16e
=19	=19	=19
8.AA	[8.A	32cc#
.	.	32a
.	.	32cc#
.	.	32ee
.	.	32aa
.	.	32ff#
4.F#	16A]	32dd#
.	.	32ff#
.	16B	32dd#
.	.	32b
.	16cn	32dd#
.	.	32b
.	16B	32f#
.	.	32b
.	16c	32f#
.	.	32d#
.	16A	32f#
.	.	32d#
=20	=20	=20
8.G	16e	8.e
.	16B	.
.	16B	.
16r	16cn	8.r
16E	16B	.
16F#	16B	.
16G	16e	[8.g
16F#	16B	.
16E	16B	.
=21	=21	=21
8.A	[4.c#	16g]
.	.	16e
.	.	16e
16r	.	16f#
16AA	.	16e
16BB	.	16e
16C#	8.c#_	16a
16BB	.	16e
16AA	.	16e
=22	=22	=22
8.D	16c#]	[4.f#
.	16A	.
.	16A	.
16r	16B	.
16D	16A	.
16E	16A	.
16F#	16d	8.f#_
16E	16A	.
16D	16A	.
=23	=23	=23
8.G	[4.B	16f#]
.	.	16d
.	.	16d
16r	.	16e
16G	.	16d
16F#	.	16d
16E	8.B_	16g
16F#	.	16d
16G	.	16d
=24	=24	=24
8.C#	16B]	[4.e
.	16G#	.
.	16G#	.
16r	16A	.
16C#	16G#	.
16BB	16G#	.
16AA#	16c#	8.e_
16BB	16G#	.
16C#	16G#	.
=25	=25	=25
8.FF#	[4.A#	16e]
.	.	16c#
.	.	16c#
16r	.	16d
16F#	.	16c#
16E	.	16c#
16D	8.A#]	16f#
16E	.	16c#
16F#	.	16c#
=26	=26	=26
8.BB	16B	32d
.	.	32B
.	16r	32d
.	.	32f#
.	16r	32d
.	.	32f#
32D	8.r	32b
32BB	.	32f#
32D	.	32b
32F#	.	32dd
32D	.	32b
32F#	.	32dd
32B	8.r	8.gg
32G	.	.
32B	.	.
32e	.	.
32B	.	.
32e	.	.
=27	=27	=27
8.a	8.r	32c#
.	.	32A
.	.	32c#
.	.	32e
.	.	32c#
.	.	32e
32C#	8.r	32a
32AA	.	32e
32C#	.	32a
32E	.	32cc#
32C#	.	32a
32E	.	32cc#
32A	8.r	8.ff#
32F#	.	.
32A	.	.
32d	.	.
32A	.	.
32d	.	.
=28	=28	=28
32g	8.r	32B
32b	.	32G
32g	.	32B
32d	.	32d
32g	.	32B
32d	.	32d
32B	8.r	32g
32d	.	32d
32B	.	32g
32G	.	32b
32B	.	32g
32G	.	32b
32E	8.r	[8.ee
32G	.	.
32E	.	.
32C#	.	.
32E	.	.
32C#	.	.
=29	=29	=29
[8.AA#	8.r	16ee]
.	.	16f#
.	.	16f#
16AA#]	8.r	16g
16BB	.	16f#
16C#	.	16f#
16FF#	8.r	16ee
16BB	.	16f#
16AA#	.	16f#
=30	=30	=30
8.BB	16f#	[4.dd
.	16B	.
.	16B	.
8.r	16d	.
.	16B	.
.	16B	.
8.BB	16f#	8.dd_
.	16B	.
.	16B	.
=31	=31	=31
[4.E	[4.g	16dd]
.	.	16b
.	.	16b
.	.	16ccn
.	.	16b
.	.	16b
8.E_	8.g]	16gg
.	.	16b
.	.	16b
=32	=32	=32
8.E_	8.f#	8.a#
4.E;]	4.a#;	[4.ff#;
=33	=33	=33
8D	8.r	32ff#]
.	.	32b
.	.	32dd
.	.	32ff#
16r	.	32bb
.	.	32ff#
8.r	8.r	32dd
.	.	32ff#
.	.	32dd
.	.	32b
.	.	32dd
.	.	32b
8.r	8.r	32f#
.	.	32b
.	.	32f#
.	.	32d
.	.	32f#
.	.	32d
=34	=34	=34
32B	[4.b	[4.dd
32G	.	.
32B	.	.
32d	.	.
32g	.	.
32d	.	.
32B	.	.
32d	.	.
32B	.	.
32G	.	.
32B	.	.
32G	.	.
32D	8.b_	8.dd_
32G	.	.
32D	.	.
32BB	.	.
32D	.	.
32BB	.	.
=35	=35	=35
8.EE#	4.b_	16dd]
.	.	16cc#
.	.	16cc#
8.r	.	16gg#
.	.	16cc#
.	.	16cc#
8.r	8.b]	16dd
.	.	16cc#
.	.	16cc#
=36	=36	=36
8.FF#	8.a#	16ee
.	.	16cc#
.	.	16cc#
16r	16r	16aa#
16E	16a#	16cc#
16F#	16b	16dd
16G	16cc#	16ee
16F#	16b	16dd
16E	16a#	16cc#
=37	=37	=37
8D	4.b	16ff#
.	.	16gg
16E	.	16ee
8F#	.	{8.dd
16E	.	.
8F#	8.a#	8cc#T}
16FF#	.	16b
=38	=38	=38
[4.BB	[4.b	[4.b
8.BB;]	8.b;]	8.b;]
====	====	====
*-	*-	*-
